icons/svg/hospital-building.svg

﻿<?xml version="1.0" encoding="utf-8"?>
<!DOCTYPE svg PUBLIC "-//W3C//DTD SVG 1.1//EN" "http://www.w3.org/Graphics/SVG/1.1/DTD/svg11.dtd">
<svg xmlns="http://www.w3.org/2000/svg" xmlns:xlink="http://www.w3.org/1999/xlink" version="1.1" baseProfile="full" width="24" height="24" viewBox="0 0 24.00 24.00" enable-background="new 0 0 24.00 24.00" xml:space="preserve">
	<path fill="#000000" fill-opacity="1" stroke-width="0.2" stroke-linejoin="round" d="M 2,22L 2,7C 2,6.44772 2.44772,6 3,6L 7,6L 7,2L 17,2L 17,6L 21,6C 21.5523,6 22,6.44772 22,7L 22,22L 14,22L 14,17L 10,17L 10,22L 2,22 Z M 8.99999,4.00001L 8.99999,10L 11,10L 11,8.00001L 13,8.00001L 13,10L 15,10L 15,4.00001L 13,4.00001L 13,6.00001L 11,6.00001L 11,4.00001L 8.99999,4.00001 Z M 4,20L 7.99999,20L 7.99999,17L 4,17L 4,20 Z M 4,15L 8,15L 8,12L 4,12L 4,15 Z M 16,20L 20,20L 20,17L 16,17L 16,20 Z M 16,15L 20,15L 20,12L 16,12L 16,15 Z M 10,15L 14,15L 14,12L 10,12L 10,15 Z "/>
</svg>

<svg xmlns="http://www.w3.org/2000/svg" version="1.1" baseProfile="full" width="24" height="24" viewBox="0 0 24.00 24.00" xml:space="preserve"><path fill="#000" fill-opacity="1" stroke-width=".2" stroke-linejoin="round" d="M2 22V7c0-.552.448-1 1-1h4V2h10v4h4c.552 0 1 .448 1 1v15h-8v-5h-4v5H2zM9 4v6h2V8h2v2h2V4h-2v2h-2V4H9zM4 20h4v-3H4v3zm0-5h4v-3H4v3zm12 5h4v-3h-4v3zm0-5h4v-3h-4v3zm-6 0h4v-3h-4v3z"/></svg>
